X:1
T:A Song in My Heart
T:A Song in My Heart
T:Florence W. Williams
T:Irene Young, 1904
T:Public Domain Courtesy of the Cyber Hymnal™
T:Public Domain Courtesy of the Cyber Hymnal™
C:Florence W. Williams
Z:Public Domain
Z:Courtesy of the Cyber Hymnal™
%%score ( 1 2 ) ( 3 4 )
L:1/8
Q:1/4=100
M:4/4
K:C
V:1 treble 
V:2 treble 
V:3 bass 
V:4 bass 
V:1
 [CE][DF] | [EG]2 [^D^F][EG] [Ec]2 [EB][Ec] | [Fd]2 [Fc][FA] [EG]2 [CE][DF] | %3
w: 1.~There’s a|song in my heart that my|lips can- not tell, And my|
w: 2.~O the|peace and the joy of this|song in my heart, Fill my|
w: 3.~Now my|life would be drear- y and|bar- ren, in- deed, Should this|
 [EG]2 [^D^F][EG] [Fe]2 [F=d][FA] | [Fd]6 [CE][DF] | [EG]2 [^D^F][EG] [Ec]2 [EB][Ec] | %6
w: soul is with hap- pi- ness|filled, Since the|Sav- ior has come in my|
w: life with a bless- ed- ness|new, And I|long for the wis- dom and|
w: sweet- est of mu- sic be|stilled, For this|song in my heart ev- er|
 [Fd]2 [Fc][FA] [EG]2 [D^F][EG] | [FA]2 [F^G][FA] [FB]2 [Fc][Fd] | [Ec]6 ||"^Refrain" [Ec]2 | %10
w: life to fore- tell The sweet|trea- sures in store for His|child.||
w: power to im- part His great|mes- sage— so won- drous- ly|true.|O|
w: tells me how sweet Is a|life with such joy- ous- ness|filled.||
 [FB]2 [F^A][FB] [Fd]2 [Fe][Fd] | [Ec]2 [FB][FA] [EG]3 G | [^FA]2 [^E^G][FA] [Fc]2 [FB][FA] | %13
w: |||
w: would that the words might be|giv- en to me, To|show you how sweet ’tis to|
w: |||
 (B4 A2) [FG]2 | [EG]2 [^D^F][EG] [Ec]2 [EB][Ec] | [Fd]2 [Fc][FA] [EG]2 ([^D^F][EG]) | %16
w: |||
w: dwell * With|Je- sus, who gave to my|life this dear song, The *|
w: |||
 [FA]2 [F^G][FA] [FB]2 [Fc][Fd] | [Ec]6 |] %18
w: ||
w: song that my lips can- not|tell.|
w: ||
V:2
 x2 | x8 | x8 | x8 | x8 | x8 | x8 | x8 | x6 || x2 | x8 | x7 G | x8 | F6 x2 | x8 | x8 | x8 | x6 |] %18
V:3
 [C,G,][C,G,] | [C,C]2 [C,C][C,C] [C,G,]2 [C,G,][C,G,] | [C,A,]2 [C,A,][C,B,] [C,C]2 [C,G,][C,G,] | %3
 [C,C]2 [C,C][C,C] [C,C]2 [D,C][D,C] | [G,B,]6 [C,G,][C,G,] | %5
 [C,C]2 [C,C][C,C] [C,G,]2 [C,G,][C,G,] | [C,A,]2 [C,A,][C,B,] [C,C]2 [C,C][C,C] | %7
 [F,C]2 [F,C][F,C] G,2 [G,A,][G,B,] | [C,C]6 || [C,C]2 | [G,D]2 [G,D][G,D] [G,B,]2 [G,B,][G,B,] | %11
 [C,G,]2 [C,A,][C,B,] [C,C]3 [E,C] | [D,C]2 [D,B,][D,C] [D,E]2 [D,D][D,C] | (D4 C2) [G,B,]2 | %14
 [C,C]2 [C,C][C,C] [C,G,]2 [C,G,][C,G,] | [C,A,]2 [C,A,][C,B,] [C,C]2 [C,C]2 | %16
 [F,C]2 [F,C][F,C] G,2 [G,A,][G,B,] | [C,C]6 |] %18
V:4
 x2 | x8 | x8 | x8 | x8 | x8 | x8 | x4 G,2 x2 | x6 || x2 | x8 | x8 | x8 | G,6 x2 | x8 | x8 | %16
 x4 G,2 x2 | x6 |] %18

